X:1
T:Title
%%score { ( 1 4 ) | ( 2 3 ) }
L:1/8
M:9/8
K:D
V:1 treble nm="Grand Piano"
V:4 treble 
V:2 bass 
V:3 bass 
V:1
 z3 z3[Q:1/4=100] FED | F3 F3 [FA]G[A,DF] | [A,FA]3 [A,FA]3 .[A,FA]2 [DGB] | z3 z3 .F3 | %4
[M:3/4] [CE]6 |[M:3/8] FED |[M:9/8] F3 F3 [FA][EG][DF] | [FA]3 [FA]3 [FA]dB | %8
 A3 F3 .[A,CA]2[K:bass] [G,CE] |[M:3/4] [F,D]6 |[M:3/8] z3 |[M:9/8][K:treble] .[GA]3 z3 z3 | %12
 [Gd]2 [Gd] A,2- [A,FA] z3 | F,2- [F,-DF] [F,DF]2 [DB] [Ed]2 [Ed] |[M:3/4] [Ec]6 | %15
[M:3/8][K:bass] A,F,[K:treble]D |[M:9/8] [GA]2 [GA] [Ec]2 [Ec] z3 | %17
 [Gd]2 [Gd] [FA]2 [FA][K:bass] D,F,B, | F2 F F2 A [DA]2 [CG] |[M:3/4] F6 |] %20
V:2
 z3 z3 .A,3 | [D,A,D]3 [D,A,D]3 z ED, | D,3 D,3 z[K:treble] d[K:bass]D, | D,3 D,3 D,F,[E,A,C] | %4
[M:3/4] [A,,A,]6 |[M:3/8] A, z z |[M:9/8] [D,A,D]3 [D,A,D]3 [D,A,]2 [D,A,] | %7
 [D,D]3 [D,D]3 [D,D][F,D][K:treble][G,DG] | [A,DF]3[K:bass] [A,D]3 z GA,, |[M:3/4] D,6 | %10
[M:3/8] A,F,D |[M:9/8] A,,2 A,, G,2- [A,,G,] G,E,C | B,2- [D,B,] D,2 D, F,2 F, | %13
 B,,2 B,, B,,2 [B,,F,] [E,^G,]2 [E,G,] |[M:3/4] [A,,A,]6 |[M:3/8] A,,3 |[M:9/8] z3 G,3 z3 | %17
 B,3 z3 z3 | A,6 z3 |[M:3/4] [D,D]6 |] %20
V:3
 z3 z3 [D,D]-[D,G,D][D,F,] | z3 z3 .[D,A,]3 | z3 z3 .D,3[K:treble][K:bass] | x9 |[M:3/4] x6 | %5
[M:3/8] [D,D]-[D,G,D][D,F,] |[M:9/8] x9 | x8[K:treble] x | z3[K:bass] z3 .A,,3 |[M:3/4] x6 | %10
[M:3/8] x3 |[M:9/8] z3 .A,,3 z3 | .D,3 z3 z3 | x9 |[M:3/4] x6 |[M:3/8] x3 | %16
[M:9/8] A,,2 A,, A,,2 A,, G,E,C | D,2 D, D,2 D, z3 | [D,D]2 [D,D] [D,D]2 [D,F,D] [A,,F,]2 [A,,E,] | %19
[M:3/4] x6 |] %20
V:4
 x9 | x9 | x9 | [DFA]3 [A,DF]3 [A,D]-[A,DA]G |[M:3/4] x6 |[M:3/8] x3 |[M:9/8] x9 | x9 | %8
 x8[K:bass] x |[M:3/4] x6 |[M:3/8] x3 |[M:9/8][K:treble] C2- [CGA] [Ec]2 [Ec] z3 | z3 .[FA]3 z3 | %13
 .[DF]3 z3 z3 |[M:3/4] x6 |[M:3/8][K:bass] x2[K:treble] x |[M:9/8] C3 z3 z3 | z3 A,3[K:bass] z3 | %18
 x9 |[M:3/4] x6 |] %20

